X:1
T:To Daunton Me
M:4/4
L:1/8
K:G
 F3/2- A/2| B2 E3/2- F/2 E2 A3/2- G/2| F3/2- A/2 E3/2- F/2 D2 d3/2- e/2|\
f-e dB d/2- B3/2 A/2- F3/2| B2 E3/2- F/2 E2 F3/2- E/2| D2 d3/2- e/2 d3 e|\
 fe/2-f/2-e/2-d/2-^c/2-B/2 A3 d| B2 e3/2- f/2 e3 f|g-fe-d B2 d3/2- e/2|\
 f2g-f e2f-e| d3/2- e/2d-BA-B de| f3/2- d/2 e3/2- B/2 d3/2- A/2B/2-A/2F/2-A/2|\
 B2 E3/2- F/2 E2||
